svg/fluentui-system-icons/ic_fluent_pin_32_filled.svg

<svg width="32" height="32" viewBox="0 0 32 32" fill="none" xmlns="http://www.w3.org/2000/svg">
<path d="M15.7443 4.27626C16.9653 1.83427 20.2198 1.30612 22.1504 3.23668L28.764 9.85034C30.6946 11.7809 30.1665 15.0355 27.7245 16.2565L21.3735 19.4319C21.0177 19.6099 20.7471 19.9218 20.6213 20.2992L18.9605 25.2818C18.4903 26.6923 16.7002 27.1149 15.6489 26.0636L11.5001 21.9148L5.41421 28.0006H4V26.5864L10.0859 20.5006L5.93713 16.3518C4.88583 15.3005 5.30842 13.5104 6.71889 13.0403L11.7015 11.3794C12.0789 11.2536 12.3909 10.983 12.5688 10.6272L15.7443 4.27626Z" fill="#212121"/>
</svg>

<svg xmlns="http://www.w3.org/2000/svg" width="32" height="32"><path d="M15.744 4.276c1.221-2.442 4.476-2.97 6.406-1.04l6.614 6.614c1.93 1.93 1.402 5.186-1.04 6.406l-6.35 3.176a1.5 1.5 0 0 0-.753.867l-1.66 4.983a2 2 0 0 1-3.312.782l-4.149-4.15-6.086 6.087H4v-1.415l6.086-6.085-4.149-4.15a2 2 0 0 1 .782-3.31l4.982-1.662a1.5 1.5 0 0 0 .868-.752l3.175-6.35Z"/></svg>
